svgs/light/restroom-simple.svg

<svg xmlns="http://www.w3.org/2000/svg" viewBox="0 0 576 512"><!-- Font Awesome Pro 6.0.0-alpha2 by @fontawesome - https://fontawesome.com License - https://fontawesome.com/license (Commercial License) --><path d="M575.375 363.604L530.465 206.418C522.615 178.943 497.502 160 468.928 160H427.074C398.5 160 373.387 178.942 365.537 206.417L320.625 363.604C317.704 373.825 325.379 384 336.01 384H384V496C384 504.844 391.156 512 400 512S416 504.844 416 496V384H480V496C480 504.844 487.156 512 496 512S512 504.844 512 496V384H559.99C570.621 384 578.295 373.825 575.375 363.604ZM357.221 352L396.304 215.209C400.229 201.471 412.786 192 427.073 192H468.927C483.214 192 495.771 201.471 499.696 215.209L538.779 352H357.221ZM448 128C483.375 128 512 99.375 512 64S483.375 0 448 0S384 28.625 384 64S412.625 128 448 128ZM448 32C465.645 32 480 46.355 480 64S465.645 96 448 96S416 81.645 416 64S430.355 32 448 32ZM128 160H64C28.654 160 0 188.654 0 224V320C0 337.674 14.328 352 32 352V496C32 504.844 39.156 512 48 512S64 504.844 64 496V352H128V496C128 504.844 135.156 512 144 512S160 504.844 160 496V352C177.674 352 192 337.674 192 320V224C192 188.654 163.348 160 128 160ZM160 320H32V224C32 206.355 46.355 192 64 192H128C145.645 192 160 206.355 160 224V320ZM96 128C131.375 128 160 99.375 160 64S131.375 0 96 0S32 28.625 32 64S60.625 128 96 128ZM96 32C113.645 32 128 46.355 128 64S113.645 96 96 96S64 81.645 64 64S78.355 32 96 32ZM256 0C247.156 0 240 7.156 240 16V496C240 504.844 247.156 512 256 512S272 504.844 272 496V16C272 7.156 264.844 0 256 0Z"/></svg>

<svg xmlns="http://www.w3.org/2000/svg" viewBox="0 0 576 512"><!--! Font Awesome Pro 6.3.0 by @fontawesome - https://fontawesome.com License - https://fontawesome.com/license (Commercial License) Copyright 2023 Fonticons, Inc. --><path d="M575.4 363.6L530.5 206.4C522.6 178.9 497.5 160 468.9 160h-41.85c-28.57 0-53.69 18.94-61.54 46.42l-44.91 157.2C317.7 373.8 325.4 384 336 384H384v112c0 8.844 7.156 16 16 16s16-7.156 16-16V384h64v112c0 8.844 7.156 16 16 16s16-7.156 16-16V384h47.99C570.6 384 578.3 373.8 575.4 363.6zM357.2 352l39.08-136.8C400.2 201.5 412.8 192 427.1 192h41.85c14.29 0 26.84 9.471 30.77 23.21L538.8 352H357.2zM448 128c35.38 0 64-28.62 64-64s-28.62-64-64-64s-64 28.62-64 64S412.6 128 448 128zM448 32c17.64 0 32 14.36 32 32s-14.36 32-32 32s-32-14.36-32-32S430.4 32 448 32zM128 160H64C28.65 160 0 188.7 0 224v96c0 17.67 14.33 32 32 32v144C32 504.8 39.16 512 48 512S64 504.8 64 496V352h64v144C128 504.8 135.2 512 144 512S160 504.8 160 496V352c17.67 0 32-14.33 32-32V224C192 188.7 163.3 160 128 160zM160 320H32V224c0-17.64 14.36-32 32-32h64c17.64 0 32 14.36 32 32V320zM96 128c35.38 0 64-28.62 64-64S131.4 0 96 0S32 28.62 32 64S60.63 128 96 128zM96 32c17.64 0 32 14.36 32 32S113.6 96 96 96S64 81.64 64 64S78.36 32 96 32zM256 0C247.2 0 240 7.156 240 16v480C240 504.8 247.2 512 256 512s16-7.156 16-16v-480C272 7.156 264.8 0 256 0z"/></svg>
